icon-themes/breeze_svg/cmd/sc_managelanguage.svg

<svg viewBox="0 0 16 16" xmlns="http://www.w3.org/2000/svg">/&gt;<path d="m4 2v1 1h-1-1v7l3 3v-3h5v-1-1h1v3l3-3v-2-5zm1 1h8v4 1h-8zm-2 2h1v3 1h1 4v1h-6z" fill="#4d4d4d"/></svg>

<svg xmlns="http://www.w3.org/2000/svg" viewBox="0 0 16 16">
     />
 <path 
     style="fill:#4d4d4d" 
     d="M 4 2 L 4 3 L 4 4 L 3 4 L 2 4 L 2 11 L 5 14 L 5 11 L 10 11 L 10 10 L 10 9 L 11 9 L 11 12 L 14 9 L 14 7 L 14 2 L 4 2 z M 5 3 L 13 3 L 13 7 L 13 8 L 5 8 L 5 3 z M 3 5 L 4 5 L 4 8 L 4 9 L 5 9 L 9 9 L 9 10 L 3 10 L 3 5 z "
     />
 </svg>
